X:38
T:Quand la bergère.... 
R:Tour
C:Trad.
A:Bretagne
D:voir Traînes-Meuriennes
O:France
Z: Eric Forgeot - http://anamnese.online.fr
M:4/4
L:1/8
Q:1/4=100
K:F
|: dd/d/ cc/d/ cB AG |
   dd/d/ cc/d/ cB A2 :|
M:3/4
|: BA/B/ cd BA | GA/B/ AG F2 |
   BA/B/ cd BA | GA/B/ Ad G2 :|
W:Quand la bergère s'en va au moulin hé
W:Quand la bergère s'en va au moulin (2x)
W:Monte dessus son âne Martin (...tin tin)
W:Monte dessus son âne et s'en va au moulin
W:Quand le meunier la voit venir de rien ne peut se retenir (2x)
W:Attache donc ton âne martin adore là tin tin
W:Attache donc ton âne à la queue du moulin (2x)
W:Pendant que le moulin tournait meunier l'a à peine caressée (2x)
W:Le loup a mangé l'âne Martin adore là tin tin
W:Le loup a mangé l'âne à la queue du moulin (2x)
W:

